X:1
T:Ite sospiri
T:Ite sospiri
T:Gio.Girolamo Kapsperger
C:Gio.Girolamo Kapsperger
%%score 1 { ( 2 4 ) | 3 }
L:1/8
Q:1/4=120
M:4/4
K:F
V:1 treble nm="Soprano" snm="S"
V:2 treble nm="BC" snm="BC"
V:4 treble 
V:3 bass 
V:1
 z4 B4 | B2 B2 B3 B | A6 c2 | B3 A A3 G | F6 c2 | c3 d d3 G | A4 A2 D2 | EF G2 G3 ^F | G6 F2 | %9
w: I-|te so- spi- ri|miei a|ri- tor- nar co-|lei, che|nel suo pet- to'ac-|co- glie a-|da _ man- ti- no|giel, on-|
w: De-|sta- te lei pie-|ta, in|lei che sor- da|sta, al|suon di miei la-|men- ti, co-|me'as- _ pe'al can- to|suol', e|
w: Ahi|ne- mi- ca d'A-|mor, mi-|ni- stra di do-|lor', se|gl'oc- chi bel- li'el|vol- to, hai|di _ do- lez- ze|pien', ond'|
w: De|se dal ca- po'al|pie, si|bel- l'A- mor ti|fe, sel|ciel di do- ni|sui, a te|si _ lar- go _|fu, per-|
w: Non|ben in- sie- me|va, bel-|lez- za'e cru- del-|ta, pe-|ro che di na-|tu- ra mil-|le _ va- ghez- ze'al|fin', o-|
 G3 B B3 A | B6 c2 | c2 c2 c3 =B | c3 B B4- | B2 A2 A4 | G8 |] z8 |] %16
w: de mi da cru-|del ca-|gion di do- glie,|_ ca- gion|_ di do-|glie.||
w: gia mai non le|duol, di|miei tor- men- tir,|_ di miei|_ tor- men-|tir.||
w: hai sde- gno'e ve-|len', nel|al- m'ac- col- to,|_ nel al-|* m'ac- col-|to.||
w: che di lor' sei|tu, si|scar- s'al- tru- i,|_ si scar-|* s'al tru-|i.||
w: scu- ra'un cor se-|rin', di|Don- na du- ra,|_ di Don-|* na du-|ra.||
V:2
 z4 [GBd]4 | [DGd]2 [Ec]2 [DFB]2 [EG]2 | [FA]6 [EA]2 | [DF]2 [FA]2 [Ec]4 | [Ac]6 [FA]2 | %5
 [Ac]4 [Gd]4 | [^FA]4 [Fd]2 [=FB]2 | [CE][DF] [EG]2 G3 ^F | [GB]6 [DA]2 | [Ec]2 [Fd]2 [Ac]4 | %10
 [Fd]4 [Gc]4 | c2 A2 c2 =B2 | [EGc]2 [FA]2 [GB]4 | G2 A2 d4 | [DG=B]8 |] z8 |] %16
V:3
 z4 G,,4 | G,,2 A,,2 B,,2 C,2 | D,6 A,,2 | B,,2 D,2 C,4 | F,,4 F,4 | F,4 _E,4 | D,6 B,,2 | %7
 C,4 [D,A,]4 | _E,6 D,2 | C,2 B,,2 F,4 | B,,4 _E,4- | E,2 F,2 G,4 | C,2 D,2 E,4 | C,4 [D,A,]4 | %14
 G,,8 |] z8 |] %16
V:4
 x8 | x8 | x8 | x8 | x8 | x8 | x8 | x8 | x8 | x8 | x8 | G2 F2 D4 | x8 | _E4 G2 ^F2 | x8 |] x8 |] %16

